svgs/sharp-solid/mars-and-venus.svg

<svg xmlns="http://www.w3.org/2000/svg" viewBox="0 0 512 512"><!--! Font Awesome Pro 6.6.0 by @fontawesome - https://fontawesome.com License - https://fontawesome.com/license (Commercial License) Copyright 2024 Fonticons, Inc. --><path d="M368 0L496 0l0 128-32 32-47-47-25.6 25.6C407 163.3 416 192.6 416 224c0 80.2-59 146.6-136 158.2l0 1.8 0 24 24 0 24 0 0 48-24 0-24 0 0 32 0 24-48 0 0-24 0-32-24 0-24 0 0-48 24 0 24 0 0-24 0-1.8C155 370.6 96 304.2 96 224c0-88.4 71.6-160 160-160c39.6 0 75.9 14.4 103.8 38.2L383 79 336 32 368 0zM352 224a96 96 0 1 0 -192 0 96 96 0 1 0 192 0z"/></svg>

<svg xmlns="http://www.w3.org/2000/svg" viewBox="0 0 512 512"><!--! Font Awesome Pro 6.4.0 by @fontawesome - https://fontawesome.com License - https://fontawesome.com/license (Commercial License) Copyright 2023 Fonticons, Inc. --><path d="M368 0H496V128l-32 32-47-47-25.6 25.6C407 163.3 416 192.6 416 224c0 80.2-59 146.6-136 158.2V384v.4 .4 .4 .4 .4 .4 .4 .4 .4 .4 .4 .4 .4 .4 .4 .4 .4 .4 .4 .4 .4 .4 .4 .4 .4 .4 .4 .4 .4 .4 .3 .4 .3 .3 .3 .3 .3 .3 .3 .3 .3 .3 .3 .3 .3 .3 .3 .3 .3 .3 .3 .3 .3 .3 .3 .3 .3 .3 .3 .3 .3 .3 .3 .3 .3 .3 .3 .3 .3h24 24v48H304 280v.2 .2 .2 .2 .2 .2 .2 .2 .2 .2 .2 .2 .2 .2 .2 .2 .2 .2 .2 .2 .2 .2 .2 .2 .2 .2 .2 .2 .2 .2 .2 .2 .2 .2 .2 .2 .2 .2 .2 .2 .2 .2 .2 .2 .2 .2 .2 .2 .2 .2 .2 .2 .2 .2 .2 .2 .2 .2 .2 .2 .2 .2 .2 .2 .2 .2 .2 .2 .2 .2 .2 .2 .2 .2 .2 .2 .2 .2 .2 .2 .2 .2 .2 .2 .2 .2 .2 .2 .2 .2 .2 .2 .2 .2 .2 .2 .2 .2 .2 .2 .2 .1 .1 .1 .1 .1 .1 .1 .1 .1 .1 .1 .1 .1 .1 .1 .1 .1 .1 .1 .1 .1 .1 .1 .1 .1 .1 .1 .1 .1 .1 .1 .1 .1 .1 .1 .1 .1 .1 .1 .1 .1 .1 .1 .1 .1 .1 .1 .1 .1 .1 .1 .1 .1 .1 .1 .1 .1 .1 .1 .1 .1 .1 .1 .1 .1 .1 .1 .1 .1 .1 .1 .1 .1 .1 .1 .1 .1 .1 .1 .1 .1 .1 .1 .1 .1 .1 .1 .1 .1 .1 .1 .1 .1 .1 .1 .1 .1 .1 .1 .1 .1 .1 .1 .1 .1 .1 .1 .1 .1 .1 .1 .1 .1 .1 .1 .1 .1 0 0 0 0 0 0 0 0 0 0 0 0 0 0 0 0 0 0 0 0 0 0 0 0 0 0 0 0 0 0 0 0 0 0 0 0 0 0 0 0 0 0 0 0 0 0 0 0 0 0 0 0 0l-24 0-24 0v0 0 0 0 0 0 0 0 0 0 0 0 0 0 0 0 0 0 0 0 0 0 0 0 0 0 0 0 0 0 0 0 0 0 0 0 0 0 0 0 0 0 0 0 0 0 0 0 0 0 0 0 0-.1-.1-.1-.1-.1-.1-.1-.1-.1-.1V486 486v-.1-.1-.1-.1-.1-.1-.1-.1-.1-.1-.1-.1-.1V485 485v-.1-.1-.1-.1-.1-.1-.1-.1-.1-.1-.1V484v-.1-.1-.1-.1-.1-.1-.1-.1-.1-.1V483v-.1-.1-.1-.1-.1-.1-.1-.1-.1-.1-.1-.1-.1-.1-.1-.1-.1-.1-.1V481v-.1-.1-.1-.1-.1-.1-.1-.1V480v-.1-.1-.1-.1-.1-.1-.1V479v-.1-.1-.1-.1-.1-.1-.1V478v-.1-.1-.1-.1-.1-.1V477v-.1-.1-.1-.1-.1-.1V476v-.1-.1-.1-.1-.1-.1V475v-.1-.2-.2-.2-.2-.2V474v-.2-.2-.2-.2-.2V473v-.2-.2-.2-.2-.2-.2-.2-.2-.2-.2-.2-.2-.2-.2-.2-.2-.2V470v-.2-.2-.2-.2-.2V469v-.2-.2-.2-.2-.2-.2-.2-.2-.2-.2V467v-.2-.2-.2-.2-.2-.2-.2-.2-.2-.2-.2-.2-.2-.2-.2-.2-.2-.2-.2-.2V463v-.2-.2-.2-.2-.2-.2-.2-.2-.2-.2-.2-.2-.2-.2-.2-.2-.2-.2V459v-.2-.2-.2-.2-.2-.2-.2-.2V457v-.2-.2-.2-.2V456H208 184V408h24 24v-.3-.3-.3-.3-.3-.3-.3-.3-.3-.3-.3-.3-.3-.3V403v-.3-.3V402v-.3-.3V401v-.3-.3V400v-.3-.3-.3-.3-.3-.3-.3-.3-.3-.3-.3-.3-.3-.4-.3-.4-.4-.4-.4V393v-.4-.4-.4-.4-.4-.4-.4-.4-.4-.4-.4-.4-.4V388v-.4-.4-.4-.4-.4-.4-.4-.4-.4-.4V384v-1.8C155 370.6 96 304.2 96 224c0-88.4 71.6-160 160-160c39.6 0 75.9 14.4 103.8 38.2L383 79 336 32 368 0zM256 488h24v24H232V488h24zm96-264a96 96 0 1 0 -192 0 96 96 0 1 0 192 0z"/></svg>
